packages/merlin-www-assets/imports/gq/icons/figure-email.svg

<svg viewBox="0 0 16 16" xmlns="http://www.w3.org/2000/svg"><path d="m16 14h-16v-12h16zm-15-1h14v-7.52l-7 4.52-7-4.51zm0-8.71 7 4.52 7-4.52v-1.29h-14z"/></svg>

<svg id="share-email" xmlns="http://www.w3.org/2000/svg" viewBox="0 0 16 16"><title>share-email</title><path d="M16,14H0V2H16V14ZM1,13H15V5.48L8,10,1,5.49V13ZM1,4.29L8,8.81l7-4.52V3H1V4.29Z"/></svg>
